X: 1
T: The Butterfly
M: 9/8
L: 1/8
K: Emin
|:B2E G2E F3|B2E G2E FED|B2d d2B A3:|
|:B2d e2f g3|B2d g2e dBA|B2d e2f g2a|b2a g2e d3:|
|:B3 B2A G2A|B3 BAB dBA:|]